svg/part/finger_swipe_line.svg

<?xml version="1.0" encoding="UTF-8"?>
<svg width="24px" height="24px" viewBox="0 0 24 24" version="1.1" xmlns="http://www.w3.org/2000/svg" xmlns:xlink="http://www.w3.org/1999/xlink">
    <title>finger_swipe_line</title>
    <g id="Icon" stroke="none" stroke-width="1" fill="none" fill-rule="evenodd">
        <g id="Part" transform="translate(-768.000000, 0.000000)">
            <g id="finger_swipe_line" transform="translate(768.000000, 0.000000)">
                <path d="M24,0 L24,24 L0,24 L0,0 L24,0 Z M12.5934901,23.257841 L12.5819402,23.2595131 L12.5108777,23.2950439 L12.4918791,23.2987469 L12.4918791,23.2987469 L12.4767152,23.2950439 L12.4056548,23.2595131 C12.3958229,23.2563662 12.3870493,23.2590235 12.3821421,23.2649074 L12.3780323,23.275831 L12.360941,23.7031097 L12.3658947,23.7234994 L12.3769048,23.7357139 L12.4804777,23.8096931 L12.4953491,23.8136134 L12.4953491,23.8136134 L12.5071152,23.8096931 L12.6106902,23.7357139 L12.6232938,23.7196733 L12.6232938,23.7196733 L12.6266527,23.7031097 L12.609561,23.275831 C12.6075724,23.2657013 12.6010112,23.2592993 12.5934901,23.257841 L12.5934901,23.257841 Z M12.8583906,23.1452862 L12.8445485,23.1473072 L12.6598443,23.2396597 L12.6498822,23.2499052 L12.6498822,23.2499052 L12.6471943,23.2611114 L12.6650943,23.6906389 L12.6699349,23.7034178 L12.6699349,23.7034178 L12.678386,23.7104931 L12.8793402,23.8032389 C12.8914285,23.8068999 12.9022333,23.8029875 12.9078286,23.7952264 L12.9118235,23.7811639 L12.8776777,23.1665331 C12.8752882,23.1545897 12.8674102,23.1470016 12.8583906,23.1452862 L12.8583906,23.1452862 Z M12.1430473,23.1473072 C12.1332178,23.1423925 12.1221763,23.1452606 12.1156365,23.1525954 L12.1099173,23.1665331 L12.0757714,23.7811639 C12.0751323,23.7926639 12.0828099,23.8018602 12.0926481,23.8045676 L12.108256,23.8032389 L12.3092106,23.7104931 L12.3186497,23.7024347 L12.3186497,23.7024347 L12.3225043,23.6906389 L12.340401,23.2611114 L12.337245,23.2485176 L12.337245,23.2485176 L12.3277531,23.2396597 L12.1430473,23.1473072 Z" id="MingCute" fill-rule="nonzero"></path>
                <path d="M9.49988,2 C10.8806,2 11.9999,3.11929 11.9999,4.5 L11.9999,9.10496 L17.4416,9.70959 C19.4673,9.93467 20.9999,11.6469 20.9999,13.6851 L20.9999,14 C20.9999,18.4183 17.4182,22 12.9999,22 L12.3261,22 C9.29595,22 6.52584,20.288 5.1707,17.5777 L2.32906,11.8944 C1.96861,11.1735 2.23563,10.2109 3.0761,9.86637 C4.11841,9.43909 5.10981,9.35949 6.13046,9.87812 C6.42675,10.0287 6.71457,10.2252 6.99988,10.4616 L6.99988,4.5 C6.99988,3.11929 8.11917,2 9.49988,2 Z M9.49988,4 C9.22374,4 8.99988,4.22386 8.99988,4.5 L8.99988,13 C8.99988,13.4247 8.73164,13.8031 8.33089,13.9436 C7.93014,14.0842 7.48432,13.9563 7.21902,13.6247 L6.88748619,13.2184646 L6.88748619,13.2184646 L6.58461703,12.8644984 C6.00581812,12.206725 5.58348,11.843575 5.22444,11.6611 C4.97687,11.5353 4.73124,11.4801 4.38976,11.5437 L6.95956,16.6833 C7.97591,18.716 10.0535,20 12.3261,20 L12.9999,20 C16.3136,20 18.9999,17.3137 18.9999,14 L18.9999,13.6851 C18.9999,12.666 18.2336,11.8099 17.2207,11.6974 L11.779,11.0927 C10.7662,10.9802 9.99988,10.1241 9.99988,9.10496 L9.99988,4.5 C9.99988,4.22386 9.77603,4 9.49988,4 Z M5.85913,3.79849 C6.14166,4.27304 5.986,4.88677 5.51145,5.1693 C4.91062,5.52702 4.47199,5.89882 4.18858,6.17462 C4.09824,6.26254 4.00927778,6.35300222 3.92563111,6.4478763 L3.80464,6.59373 C3.47832,7.03606 2.85543,7.13239 2.41071,6.80812 C1.96981,6.48663 1.87094,5.85053 2.19256,5.41 C2.36921,5.16861 2.57994,4.94936 2.79374,4.7413 C3.17118,4.374 3.73256,3.90077 4.48832,3.45081 C4.96287,3.16828 5.5766,3.32395 5.85913,3.79849 Z M13.0829,3.39882 C13.3033,2.89241 13.8925,2.66054 14.3989,2.88091 C15.533,3.37445 16.3707,3.98791 16.9299,4.48462 C17.2454,4.76497 17.5579,5.06847 17.8079,5.41091 C18.1333,5.85716 18.0353,6.4827 17.5891,6.80809 C17.1784231,7.10750846 16.6176112,7.03870444 16.2748378,6.68610375 L16.0311,6.40122125 L16.0311,6.40122125 L15.891472,6.25434399 L15.891472,6.25434399 L15.70898,6.07744057 C15.674982,6.0458351 15.63919,6.013264 15.6016,5.97987 C15.1713,5.59765 14.509,5.10999 13.6009,4.71479 C13.0944,4.49441 12.8626,3.90523 13.0829,3.39882 Z" id="形状" fill="#09244B"></path>
            </g>
        </g>
    </g>
</svg>

<svg xmlns="http://www.w3.org/2000/svg" width="24" height="24"><g fill="none" fill-rule="evenodd"><path d="M24 0v24H0V0h24ZM12.593 23.258l-.011.002-.071.035-.02.004-.014-.004-.071-.035c-.01-.004-.019-.001-.024.005l-.004.01-.017.428.005.02.01.013.104.074.015.004.012-.004.104-.074.012-.016.004-.017-.017-.427c-.002-.01-.009-.017-.017-.018Zm.265-.113-.013.002-.185.093-.01.01-.003.011.018.43.005.012.008.007.201.093c.012.004.023 0 .029-.008l.004-.014-.034-.614c-.003-.012-.01-.02-.02-.022Zm-.715.002a.023.023 0 0 0-.027.006l-.006.014-.034.614c0 .012.007.02.017.024l.015-.002.201-.093.01-.008.004-.011.017-.43-.003-.012-.01-.01-.184-.092Z"/><path fill="#09244B" d="M9.5 2A2.5 2.5 0 0 1 12 4.5v4.605l5.442.605A4 4 0 0 1 21 13.685V14a8 8 0 0 1-8 8h-.674a8 8 0 0 1-7.155-4.422l-2.842-5.684c-.36-.72-.093-1.683.747-2.028 1.042-.427 2.034-.507 3.054.012.297.15.585.347.87.584V4.5A2.5 2.5 0 0 1 9.5 2Zm0 2a.5.5 0 0 0-.5.5V13a1 1 0 0 1-1.781.625l-.332-.407-.302-.354c-.58-.657-1.002-1.02-1.36-1.203a1.214 1.214 0 0 0-.835-.117l2.57 5.14A6 6 0 0 0 12.326 20H13a6 6 0 0 0 6-6v-.315a2 2 0 0 0-1.78-1.988l-5.441-.604a2 2 0 0 1-1.78-1.988V4.5a.5.5 0 0 0-.5-.5Zm-3.64-.202A1 1 0 0 1 5.51 5.17c-.6.358-1.039.73-1.322 1.006-.09.088-.18.178-.263.273l-.121.146a1 1 0 0 1-1.394.214 1.01 1.01 0 0 1-.218-1.398 5.41 5.41 0 0 1 .6-.669c.378-.367.94-.84 1.695-1.29a1 1 0 0 1 1.371.347Zm7.223-.4a1 1 0 0 1 1.316-.517 9.56 9.56 0 0 1 2.53 1.604c.316.28.629.583.879.926a1 1 0 0 1-.219 1.397c-.41.3-.971.23-1.314-.122l-.244-.285-.14-.147-.182-.177a7.56 7.56 0 0 0-2.108-1.363 1 1 0 0 1-.518-1.315Z"/></g></svg>
